actions/scalable/edit-table-insert-column-right.svg

<svg height="22" width="22" xmlns="http://www.w3.org/2000/svg" xmlns:sodipodi="http://sodipodi.sourceforge.net/DTD/sodipodi-0.dtd" xmlns:inkscape="http://www.inkscape.org/namespaces/inkscape">
 <g transform="matrix(1 0 0 1 -461.71 -525.79)">
  <path d="m3 3v1 8 1 1 4 1h1 6 2v-1h-2-1v-4h1 2v-1h-2-1v-1-3h4v3h1v-8h4 1v-1h-16zm1 1h4v4h-4v-4zm5 0h4v4h-4v-4zm-5 5h4v3 1h-4v-1-3zm0 5h4v4h-4v-4z" fill="#4d4d4d" transform="matrix(1 0 0 1 461.71 525.79)"/>
  <path d="m13 4v5.293 2.707h1v-2.293l4-4v2.586l-3.707 3.707h1.414l2.293-2.293v2.293h1v-8h-1v0.293l-4 4v-4.293h-1z" fill="#1d99f3" transform="matrix(1 0 0 1 461.71 525.79)"/>
  <path d="m478.71 539.79v2h2v1h-2v2h-1v-2h-2v-1h2v-2h1z" fill="#4d4d4d"/>
 </g>
</svg>

<?xml version="1.0" encoding="UTF-8" standalone="no"?>
<!-- Created with Inkscape (http://www.inkscape.org/) -->

<svg
   xmlns:dc="http://purl.org/dc/elements/1.1/"
   xmlns:cc="http://creativecommons.org/ns#"
   xmlns:rdf="http://www.w3.org/1999/02/22-rdf-syntax-ns#"
   xmlns:svg="http://www.w3.org/2000/svg"
   xmlns="http://www.w3.org/2000/svg"
   xmlns:sodipodi="http://sodipodi.sourceforge.net/DTD/sodipodi-0.dtd"
   xmlns:inkscape="http://www.inkscape.org/namespaces/inkscape"
   width="22"
   height="22"
   id="svg3815"
   version="1.1"
   inkscape:version="0.48+devel r"
   sodipodi:docname="edit-table-insert-column-right.svg">
  <defs
     id="defs3817" />
  <sodipodi:namedview
     id="base"
     pagecolor="#ffffff"
     bordercolor="#666666"
     borderopacity="1.0"
     inkscape:pageopacity="0.0"
     inkscape:pageshadow="2"
     inkscape:zoom="26.436636"
     inkscape:cx="8.2710572"
     inkscape:cy="9.8767125"
     inkscape:document-units="px"
     inkscape:current-layer="layer1"
     showgrid="true"
     fit-margin-top="0"
     fit-margin-left="0"
     fit-margin-right="0"
     fit-margin-bottom="0"
     inkscape:window-width="1366"
     inkscape:window-height="668"
     inkscape:window-x="-2"
     inkscape:window-y="23"
     inkscape:window-maximized="1"
     inkscape:showpageshadow="false"
     borderlayer="false">
    <sodipodi:guide
       position="2.0000044,19.999979"
       orientation="18,0"
       id="guide3338" />
    <sodipodi:guide
       position="2.0000044,1.9999785"
       orientation="0,18"
       id="guide3340" />
    <sodipodi:guide
       position="20.000004,1.9999785"
       orientation="-18,0"
       id="guide3342" />
    <sodipodi:guide
       position="20.000004,19.999979"
       orientation="0,-18"
       id="guide3344" />
    <sodipodi:guide
       position="3.0000044,18.999979"
       orientation="16,0"
       id="guide3346" />
    <sodipodi:guide
       position="3.0000044,2.9999785"
       orientation="0,16"
       id="guide3348" />
    <sodipodi:guide
       position="19.000004,2.9999785"
       orientation="-16,0"
       id="guide3350" />
    <sodipodi:guide
       position="17,19"
       orientation="0,-16"
       id="guide3352" />
    <inkscape:grid
       type="xygrid"
       id="grid3354" />
  </sodipodi:namedview>
  <metadata
     id="metadata3820">
    <rdf:RDF>
      <cc:Work
         rdf:about="">
        <dc:format>image/svg+xml</dc:format>
        <dc:type
           rdf:resource="http://purl.org/dc/dcmitype/StillImage" />
        <dc:title></dc:title>
      </cc:Work>
    </rdf:RDF>
  </metadata>
  <g
     inkscape:label="Capa 1"
     inkscape:groupmode="layer"
     id="layer1"
     transform="translate(-461.71429,-525.79075)">
    <path
       style="opacity:1;fill:#666666;fill-opacity:1;stroke:none"
       d="M 3 3 L 3 4 L 3 12 L 3 13 L 3 14 L 3 18 L 3 19 L 4 19 L 10 19 L 12 19 L 12 18 L 10 18 L 9 18 L 9 14 L 10 14 L 12 14 L 12 13 L 10 13 L 9 13 L 9 12 L 9 9 L 13 9 L 13 12 L 14 12 L 14 4 L 18 4 L 19 4 L 19 3 L 3 3 z M 4 4 L 8 4 L 8 8 L 4 8 L 4 4 z M 9 4 L 13 4 L 13 8 L 9 8 L 9 4 z M 4 9 L 8 9 L 8 12 L 8 13 L 4 13 L 4 12 L 4 9 z M 4 14 L 8 14 L 8 18 L 4 18 L 4 14 z "
       transform="translate(461.71429,525.79075)"
       id="rect4108" />
    <path
       style="opacity:1;fill:#1d99f3;fill-opacity:1;stroke:none"
       d="M 13 4 L 13 9.2929688 L 13 12 L 14 12 L 14 9.7070312 L 18 5.7070312 L 18 8.2929688 L 14.292969 12 L 15.707031 12 L 18 9.7070312 L 18 12 L 19 12 L 19 4 L 18 4 L 18 4.2929688 L 14 8.2929688 L 14 4 L 13 4 z "
       transform="translate(461.71429,525.79075)"
       id="rect4197" />
    <path
       inkscape:connector-curvature="0"
       id="rect4139"
       d="m 478.71429,539.79075 0,2 2,0 0,1 -2,0 0,2 -1,0 0,-2 -2,0 0,-1 2,0 0,-2 1,0 z"
       style="fill:#666666;fill-opacity:1;stroke:none" />
  </g>
</svg>
